packages/kaspersky-hexa-ui-icons/src/iconsSVGs/48/ShieldSelfdefense.svg

<svg xmlns="http://www.w3.org/2000/svg" width="48" height="48" fill="none" viewBox="0 0 48 48"><path fill="currentColor" fill-rule="evenodd" d="M24.5 0 6 10.35v18.42c0 12.82 17.43 18.87 18.18 19.12l.32.11.32-.11C25.56 47.64 43 41.65 43 28.77V10.35zM41 28.77C41 39.32 26.82 45 24.5 45.88 22.18 45 8 39.29 8 28.77V11.52l16.5-9.23L41 11.52zM10 12.69v16.08c0 8 9.87 13 14.11 14.81l.39.16.39-.16C29.13 41.8 39 36.81 39 28.77V12.69L24.5 4.58zm27 16.08c0 6.75-9.1 11.33-12.5 12.8C21.11 40.09 12 35.5 12 28.77v-14.9l12.5-7 12.5 7z" clip-rule="evenodd"/></svg>

<svg width="48" height="48" viewBox="0 0 48 48" fill="none" xmlns="http://www.w3.org/2000/svg">
<path fill-rule="evenodd" clip-rule="evenodd" d="M24.5 0L6 10.35V28.77C6 41.59 23.43 47.64 24.18 47.89L24.5 48L24.82 47.89C25.56 47.64 43 41.65 43 28.77V10.35L24.5 0ZM41 28.77C41 39.32 26.82 45 24.5 45.88C22.18 45 8 39.29 8 28.77V11.52L24.5 2.29L41 11.52V28.77ZM10 12.69V28.77C10 36.77 19.87 41.77 24.11 43.58L24.5 43.74L24.89 43.58C29.13 41.8 39 36.81 39 28.77V12.69L24.5 4.58L10 12.69ZM37 28.77C37 35.52 27.9 40.1 24.5 41.57C21.11 40.09 12 35.5 12 28.77V13.87L24.5 6.87L37 13.87V28.77Z"  fill="currentColor"/>
</svg>
